X:214
T:Manzanita
C: Tony Rice - Arr. Sam Bush
N:TablEdited by Becky.Smith
L:1/8
Q:1/4=210
M:4/4
K:F
z8 |: z2 A,C DE FA | "C"G6 FE | "Bb"DE FD "C"EC "Dm"D2 | z2 A,C DE FA | "C"G6 FE | 
"Bb"DE FD "C"EC "A"A,2 | z2 EG Ac d_e | "Am"e6 {c}d2 | "F"cd "Am"A6 | Ac df "C"ec "Dm"d2 | 
z2 EG Ac d_e | "Am"e6 {c}d2 | cd "Am"A3d cA | ed cf ed cA | 
M:2/4
|1 GF "Dm"D2 :| 
M:4/4
|2 GF "Dm"D6 | "F"Ac zd cA FA | "C"GE C4 DD | "Dm"DE FD EF G_A | "F"A2 AA AA A_A | 
Ac zd cA FA | "C"GE C4 CA, | "Bb"B,C DF EC "A"A,2 | zA, zA, A,2 A,G, | "A7"A,_D EA GF "Dm"=D2 | 
 

